X:1
T:When the King Shall Come
T:When the King Shall Come
T:Ira David Sankey
T:Frances Jane (Fanny) Crosby, 1896
T:Public Domain Courtesy of the Cyber Hymnal™
T:Public Domain Courtesy of the Cyber Hymnal™
C:Ira David Sankey
Z:Public Domain
Z:Courtesy of the Cyber Hymnal™
%%score ( 1 2 ) ( 3 4 )
L:1/8
Q:1/4=107
M:2/4
K:Ab
V:1 treble 
V:2 treble 
V:3 bass 
V:4 bass 
V:1
 [CA][DB] | [Ec][Ec] [Ec][DB] | [Fd][Ec] [EB][EA] | [FA][=EG] [FA][DF] | [CE]2 [CE][CE] | %5
w: 1.~Oh, the|wear- y night is|wan- ing, And the|clouds are roll- ing|by; See, the|
w: 2.~When the|ran- somed of Je-|ho- vah, From the|East and from the|West, Shall re-|
w: 3.~May He|find us, when He|com- eth, Faith- ful|watch- ers, day and|night, At our|
 [DF][EG] [EA][EB] | [Ec][EA] [Ed][Ec] | [EB][EB] [=DB][Dc] | [EB]2 [EA][DB] | [Cc][Ec] [Ec][DB] | %10
w: long ex- pect- ed|morn- ing Now is|dawn- ing in the|sky; When from|Zi- on’s loft- y|
w: turn with joy and|glad- ness, To re-|ceive the prom- ised|rest— Then shall|ev- ery tribe and|
w: roy- al post of|du- ty, With our|ar- mor shin- ing|bright; May our|lamps be trimmed and|
 [Fd][Ec] [EB][EA] | [FA][=EG] [FA][DF] | [CE]2 [CE][CE] | [DF][EG] [EA][EB] | %14
w: mount- ain We shall|hear the watch- men|cry, And re-|joic- ing we shall|
w: na- tion Out of|ev- ery land be|blessed, And re-|joic- ing they shall|
w: burn- ing With a|clear and stea- dy|light, That re-|joic- ing we may|
 [Ec]!fermata![Ae] [EA][Fd] | [Ec]2 [DB]2 | !fermata![CA]2 z2 ||"^Refrain" [Ec]4 | %18
w: ga- ther When the|King shall|come.||
w: ga- ther When the|King shall|come.|O|
w: ga- ther When the|King shall|come.||
 [Ec] !fermata![Ee]3 | [FA]4 | [FA] !fermata![=Ec]3 | [FB][FA] [FA][DF] | [CE][CE] [EA][EB] | %23
w: |||||
w: Zi- on!|O|Zi- on!|Great will be Thy|tri- umph When the|
w: |||||
 [Ec]2 A2 | [Ge]4 | [Ae]4 | [Af] !fermata![Ae]3 | [Ec]4 | [Fd] !fermata![Ec]3 | [FB][FA] [FA][DF] | %30
w: |||||||
w: King shall|come;|O|Zi- on!|O|Zi- on!|Thou shalt be ex-|
w: |||||||
 [CE][CE] [EA][FB] | [Ec]2 [EB]2 | !fermata![EA]2 |] %33
w: |||
w: alt- ed When the|King shall|come.|
w: |||
V:2
 x2 | x4 | x4 | x4 | x4 | x4 | x4 | x4 | x4 | x4 | x4 | x4 | x4 | x4 | x4 | x4 | x4 || x4 | x4 | %19
 x4 | x4 | x4 | x4 | x2 A2 | x4 | x4 | x4 | x4 | x4 | x4 | x4 | x4 | x2 |] %33
V:3
 [A,,E,][A,,E,] | [A,,A,][A,,A,] [A,,A,][A,,A,] | [A,,A,][A,,A,] [B,,G,][C,A,] | %3
 [D,A,][D,A,] [D,A,][D,A,] | [A,,A,]2 [A,,A,][A,,A,] | [D,A,][D,B,] [C,A,][E,G,] | %6
 A,[A,C] [G,B,]A, | [G,B,][G,B,] [F,A,][F,A,] | G,2 [C,A,][B,,G,] | [A,,A,][A,,A,] [A,,A,][A,,A,] | %10
 [A,,A,][A,,A,] [B,,G,][C,A,] | [D,A,][D,A,] [D,A,][D,A,] | [A,,A,]2 [A,,A,][A,,A,] | %13
 [D,A,][D,B,] [C,A,][E,G,] | A,!fermata![A,C] [C,A,][D,A,] | [E,A,]2 [E,G,]2 | %16
 !fermata![A,,A,]2 z2 || A,4 | A, [A,C]3 | [F,C]4 | [F,A,] [C,G,]3 | [D,F,][D,F,] [D,F,][D,A,] | %22
 [A,,A,][A,,A,] [C,A,][E,G,] | A,2 [F,A,]2 | [E,B,]4 | [A,C]4 | [A,D] [A,C]3 | [E,A,]4 | %28
 [C,A,] [C,A,]3 | [D,A,][D,A,] [D,A,][D,A,] | [E,A,][E,A,] [E,A,][D,A,] | [E,A,]2 [E,D]2 | %32
 [A,C]2 |] %33
V:4
 x2 | x4 | x4 | x4 | x4 | x4 | A, x A, x | x4 | (E,D,) x2 | x4 | x4 | x4 | x4 | x4 | A, x3 | x4 | %16
 x4 || A,4 | A, x3 | x4 | x4 | x4 | x4 | A,2 x2 | x4 | x4 | x4 | x4 | x4 | x4 | x4 | x4 | x2 |] %33

